!!!COM: Palestrina, Giovanni Perluigi da
!!!OPR: Missa Emendemus in melius
!!!OMD: Credo
!!!OTL: First Section
**kern	**kern	**kern	**kern
*Ibass	*Itenor	*Icalto	*Icant
!Bassus	!Tenor	!Altus	!Cantus
*clefF4	*clefGv2	*clefG2	*clefG2
*k[b-]	*k[b-]	*k[b-]	*k[b-]
*G:dor	*G:dor	*G:dor	*G:dor
*M4/2	*M4/2	*M4/2	*M4/2
=1	=1	=1	=1
1D	0r	1d	1r
1D	.	2d	1a
.	.	2d	.
=2	=2	=2	=2
1F	0r	1c	2a
.	.	.	2a
1G	.	2B-	1g
.	.	[2d	.
=3	=3	=3	=3
2D	0r	2d]	2f
1F	.	4c	1a
.	.	4B-	.
.	.	2c	.
4E	.	[2d	4g
4D	.	.	4f
=4	=4	=4	=4
1E	1r	2d]	1g
.	.	2c#	.
2D	1A	2d	1f#
2D	.	2d	.
=5	=5	=5	=5
2C#	2A	2e	1r
2D	2A	2f	.
1A	1c	1e	2r
.	.	.	2a
=6	=6	=6	=6
1D	1d	1.f	2a
.	.	.	2a
1r	1A	.	1cc
.	.	2e	.
=7	=7	=7	=7
0r	2.B-	4d	1dd
.	.	4e	.
.	.	2.f	.
.	4A	.	.
.	4F	.	2a
.	4G	4e	.
.	[2A	4c	2cc
.	.	4d	.
=8	=8	=8	=8
0r	2A]	2e	2cc
.	4G	1f	4b-
.	4F	.	4a
.	1G	.	1b-
.	.	2e	.
=9	=9	=9	=9
2r	2F	0f	0a
1F	2A	.	.
.	1d	.	.
2D	.	.	.
=10	=10	=10	=10
2F	2c	0r	0r
2E	2c	.	.
4F	2A	.	.
4E	.	.	.
4D	[2B-	.	.
4C	.	.	.
=11	=11	=11	=11
1D	4B-]	2r	2r
.	4A	.	.
.	1A	1f	2a
2BB-	.	.	1dd
2BB-	2G	2d	.
=12	=12	=12	=12
1AA	1A	2f	1cc
.	.	2e	.
1r	2r	4f	2a
.	.	4e	.
.	[2G	4d	[2b-
.	.	4c	.
=13	=13	=13	=13
0r	2G]	2.d	4b-]
.	.	.	4g
.	2F#	.	2.a
.	.	4c	.
.	2G	2B-	.
.	.	.	4g
.	2G	2B-	[2g
=14	=14	=14	=14
1r	2D	1A	2g]
.	2D	.	2f#
2r	2G	2.B-	2g
[2G	2G	.	[2g
.	.	4c	.
=15	=15	=15	=15
2G]	1B-	2d	2g]
2G	.	2d	2g
2C	2c	2e-	2g
2C	2c	2e-	2g
=16	=16	=16	=16
1.G	2.B-	2d	1.b-
.	.	2d	.
.	4c	.	.
.	2d	4B-	.
.	.	4c	.
2G	2B-	4d	2b-
.	.	4e	.
=17	=17	=17	=17
1F	1c	1f	1a
[1E-	[1e-	[1g	[1b-
=18	=18	=18	=18
2E-]	2e-]	2g]	2b-]
2BB-	2d	2f	2b-
1C	1c	1e-	2a
.	.	.	[2g
=19	=19	=19	=19
1D	1A	1d	2g]
.	.	.	4f#
.	.	.	4e
2r	2r	2r	2f#
[2G	[2B-	[2d	[2g
=20	=20	=20	=20
4G]	4B-]	4d]	4g]
4G	4B-	4d	4g
2G	2B-	2d	2g
2F	2c	2f	2a
2D	2d	2f	2b-
=21	=21	=21	=21
2F	2c	2f	2a
2G	2B-	2d	2g
2C	2c	2e-	2g
2D	2A	2d	2f#
=22	=22	=22	=22
2GG	2B-	1d	1g
1G	2G	.	.
.	1A	1r	1r
2F	.	.	.
=23	=23	=23	=23
2D	2B-	1r	1r
2F	2A	.	.
1E-	1c	1G	2r
.	.	.	[2g
=24	=24	=24	=24
1D	1d	1A	2g]
.	.	.	2f
1r	1r	2B-	2d
.	.	2A	2f
=25	=25	=25	=25
0r	2r	1c	2.e
.	1c	.	.
.	.	.	4f
.	.	2.G	[1g
.	2B-	.	.
.	.	4A	.
=26	=26	=26	=26
0r	2G	4B-	2g]
.	.	4c	.
.	2B-	4d	4f
.	.	4e	4g
.	1A	2f	4a
.	.	.	4b-
.	.	[2e	[2a
=27	=27	=27	=27
0r	2F	4e]	2a]
.	.	4d	.
.	2G	1d	4g
.	.	.	4f
.	1A	.	2e
.	.	2c#	2e
=28	=28	=28	=28
1D	2r	2d	2d
.	2A	2d	2f#
2D	2A	2d	2f#
2D	2A	2d	2f#
=29	=29	=29	=29
1GG	1B-	1d	1g
[1D	2A	2d	2f#
.	2d	2f#	2a
=30	=30	=30	=30
1D]	2d	2f#	2a
.	2d	2f#	2a
1r	2G	2g	2b-
.	2G	2g	2b-
=31	=31	=31	=31
2r	2d	1f#	1a
1D	1d	.	.
.	.	1r	1r
2E	2c	.	.
=32	=32	=32	=32
1F#	1A	0r	2r
.	.	.	1d
1G	1B-	.	.
.	.	.	2e
=33	=33	=33	=33
1D	1A	2r	1f#
.	.	2d	.
2.E-	2.G	2c	2g
.	.	2B-	2g
4D	4F	.	.
=34	=34	=34	=34
2C	2E-	2A	2a
2BB-	2D	1G	2b-
1AA	1C	.	1cc
.	.	2F#	.
=35	=35	=35	=35
1GG	2D	1G	2.b-
.	1G	.	.
.	.	.	8a
.	.	.	8g
2.D	.	1r	1a
.	2F	.	.
4D	.	.	.
=36	=36	=36	=36
2E	2G	0r	0r
2F	2A	.	.
2G	2B-	.	.
2E	2G	.	.
=37	=37	=37	=37
2F	2A	0r	0r
2D	2B-	.	.
2E	2c	.	.
2F	2A	.	.
=38	=38	=38	=38
2G	2B-	0r	1r
4F	2c	.	.
4E	.	.	.
2D	4d	.	2r
.	4c	.	.
2E-	[2B-	.	2b-
=39	=39	=39	=39
1C	4B-]	1r	1cc
.	8A	.	.
.	8G	.	.
.	2A	.	.
1BB-	2B-	2r	2dd
.	2B-	2f	2dd
=40	=40	=40	=40
1r	1c	1e	4cc
.	.	.	4b-
.	.	.	4a
.	.	.	4g
1BB-	2d	2d	2f
.	2d	2f	2b-
=41	=41	=41	=41
1C	4c	1e	4a
.	4B-	.	4g
.	4A	.	4cc
.	4G	.	4b-
2D	1F	4f	4a
.	.	4e	4g
2D	.	4d	[2a
.	.	4c	.
=42	=42	=42	=42
1GG	1B-	1d	4a]
.	.	.	4g
.	.	.	1g
2D	1A	1d	.
2D	.	.	2f#
=43	=43	=43	=43
1GG	2G	2d	2g
.	2B-	2d	2dd
1r	2A	2e	2cc
.	2A	2f#	2a
=44	=44	=44	=44
0r	1G	1g	1b-
.	2.A	4e	[1cc
.	.	4d	.
.	.	4c	.
.	4B-	4d	.
=45	=45	=45	=45
1r	2c	4e	2cc]
.	.	4f#	.
.	2G	1g	2b-
2r	2d	.	1a
2D	2d	2f	.
=46	=46	=46	=46
2E	2c	2g	0r
2F	2c	4f	.
.	.	4e	.
1G	1B-	1d	.
=47	=47	=47	=47
2E	1.c	0r	0r
4C	.	.	.
4D	.	.	.
4E	.	.	.
4F	.	.	.
[2G	2B-	.	.
=48	=48	=48	=48
2G]	1A	1r	1r
2F#	.	.	.
1G	1G	2r	2r
.	.	2d	2dd
=49	=49	=49	=49
0r	2r	2e	2cc
.	2G	2g	2b-
.	2A	2f	2a
.	2c	[2e	[2g
=50	=50	=50	=50
0r	1B-	4e]	4g]
.	.	4d	4f
.	.	1d	4f
.	.	.	8e
.	.	.	8d
.	1A	.	1e
.	.	2c#	.
=51	=51	=51	=51
2r	2D	2d	2f
2BB-	2d	2f	2b-
2BB-	2d	2f	2b-
2BB-	2d	2f	2b-
=52	=52	=52	=52
1F	1c	1f	1a
1G	1B-	1d	1g
=53	=53	=53	=53
2D	2A	2d	2f
2D	2d	2f	2a
2F	2c	2f	2a
2F	2c	2f	2a
=54	=54	=54	=54
1C	1c	1e	1g
1D	1A	1d	1f
=55	=55	=55	=55
2AA	2A	0c#	0e
1AA	1A	.	.
2AA	2A	.	.
=56	=56	=56	=56
2BB-	2G	1r	1r
2C	2G	.	.
1D	[1F	2r	2r
.	.	[2d	[2dd
=57	=57	=57	=57
1BB-	2F]	2d]	2dd]
.	2D	2d	2dd
1AA	1A	2e	2cc
.	.	2f#	2cc
=58	=58	=58	=58
1r	2r	1g	1b-
.	1G	.	.
1C	.	1e-	1cc
.	[2c	.	.
=59	=59	=59	=59
0G	2c]	1d	1dd
.	4B	.	.
.	4A	.	.
.	1B	1d	2r
.	.	.	[2g
=60	=60	=60	=60
1C	1c	1e-	2g]
.	.	.	1cc
[1G	1r	1d	.
.	.	.	4b-
.	.	.	4a
=61	=61	=61	=61
1G]	1d	1g	2b-
.	.	.	2b-
4D	2d	1f	1a
4E	.	.	.
4F	[2d	.	.
4G	.	.	.
=62	=62	=62	=62
0A	2d]	0e	0a
.	4c#	.	.
.	4B	.	.
.	1c#	.	.
=63	=63	=63	=63
0D	0d	0f#	0a
=64	=64	=64	=64
1.G	1.B-	1.d	1.g
2G	2B-	2d	2g
=65	=65	=65	=65
1C	1c	1e-	1g
1D	1A	1d	1f#
=66	=66	=66	=66
2.G	2.B-	2.d	2.g
4G	4B-	4d	4g
2F	2c	2f	2a
2D	2F	2f	2b-
=67	=67	=67	=67
1C	2G	1e-	1cc
.	2A	.	.
1BB-	1B-	2d	2f
.	.	2d	2b-
=68	=68	=68	=68
0r	0r	2.f	2.a
.	.	4e	4g
.	.	2d	2f
.	.	2B-	2g
=69	=69	=69	=69
1r	1.A	1c	1e
[1D	.	2d	2f
.	2A	[2d	[2a
=70	=70	=70	=70
2D]	1F	2d]	2a]
2D	.	2d	2a
2BB-	2D	2f	[1b-
2GG	[2G	[2e	.
=71	=71	=71	=71
1BB-	4G]	4e]	2b-]
.	4F	4d	.
.	2D	1d	2g
1AA	1E	.	2a
.	.	2c#	2a
=72	=72	=72	=72
1D	1F#	1d	1a
1r	1r	1r	1r
*-	*-	*-	*-
!!!CDT: 1525/^1526/-1594/2/2
!!!OCY: Italia
!!!AGN: Mass (Parody)
!!!AST: renaissance, vocal
!!!ASW: Antiphon
!!!PWK: Masses, Book 7
!!!RNB: Cadence finals: D
!!!YOR: Le Opere Complete, v. 23, p. 61
!!!YOO: Rome, Italy: Fratelli Scalera
!!!END: 1992//
!!!EED: John Miller
!!!YEC: Copyright 2000, John Miller
!!!YEN: United States of America
!!!YEM: Rights to all derivative electronic formats reserved.
!!!YEM: Refer to licensing agreement for further details.
!!!YEM: This file must be accompanied by the licensing agreement.
!!!YEM: A copy of the licensing agreement may be found at http://www.music-cog.ohio-state.edu/HumdrumDatabases/Palestrina/license.txt
!!!EMD: converted to Humdrum by Bret Aarden
